**kern	**kern	**dynam
*part1	*part1	*part1
*staff2	*staff1	*
*I"Piano	*	*
*clefF4	*clefG2	*
*k[f#c#g#d#]	*k[f#c#g#d#]	*
=1	=1	=1
*^	*^	*
8A')) 8a	8ryy	8cc#') 8aa	8ryy	.
4c#^	(8c#L	4cc#	(8cc#L	.
.	8C#J)	.	8ccc#J)	.
(8c# 8g#	8ryy	(16dd#LL	8b	.
.	.	16ee#XJJ	.	.
*v	*v	*	*	*
*	*v	*v	*
=	=	=
8F#') 8f#	8a') 8ff#	.
8r	8r	.
8A' 8cn 8f# 8a	8ccn' 8ff# 8aa	.
8r	8r	.
=	=	=
8B' 8e 8g#	8b' 8ee 8gg#	.
8r	8r	.
8BBB' 8BB	8a' 8b 8dd# 8ff#	.
8r	8r	.
=	=	=
*	*^	*
8EE' 8E	8g#' 8b 8ee	8ryy	.
*^	*	*	*
(8d#L 8f#	4B	(8dd#L 8ff#	4b	p
8eJ 8g#	.	8ee 8gg#	.	.
8c# 8e 8a	8ryy	8cc#J 8ee 8aa	8ryy	.
*v	*v	*	*	*
*	*v	*v	*
=	=	=
4B) 4e 4f#	4b) 4ee 4ff#	.
8BBB' 8BB	8b' 8dd# 8ff# 8bb	.
8r	8r	.
=	=	=
*	*^	*
8EE' 8E	8b' 8ee 8gg#	8ryy	.
*^	*	*	*
(8d#L 8f#	4B	(8dd#L 8ff#	4b	p
8eJ 8g#	.	8ee 8gg#	.	.
8c# 8e 8a	8ryy	8eeJ 8aa	8cc#	.
*v	*v	*	*	*
*	*v	*v	*
=	=	=
4B) 4e 4f#	4b) 4ee 4ff#	.
8BBB' 8BB	8b' 8dd# 8ff# 8bb	.
8r	8r	.
=	=	=
!	!LO:TX:b:t=Repeat is optional	!
8EE' 8E	8b' 8ee 8gg#	.
8r	8r	.
*clefG2	*	*
8e' 8b	8gg#' 8eee	.
8r	8r	.
=:|!	=:|!	=:|!
*-	*-	*-
!!!system-decoration: {(s1,s2)}
